src/svg/tag.svg

<svg height="1000" width="1000.0" xmlns="http://www.w3.org/2000/svg">
    <path d="m0 492.4v-398.6c0-51.8 42-93.8 93.8-93.8h398.6c25.9 0 49.3 10.5 66.3 27.5l413.8 413.8c36.7 36.6 36.7 96 0 132.6l-398.6 398.6c-36.6 36.7-96 36.7-132.6 0l-413.8-413.8c-17-17-27.5-40.4-27.5-66.3z m218.8-367.4c-51.8 0-93.8 42-93.8 93.8s42 93.7 93.8 93.7 93.7-42 93.7-93.7-42-93.8-93.7-93.8z" />
  </svg>

<svg height="1000" width="1000" xmlns="http://www.w3.org/2000/svg"><path d="M0 492.4V93.8C0 42 42 0 93.8 0h398.6a93.8 -93.8 0 0 0 66.3 27.5l413.8 413.8c36.7 36.6 36.7 96 0 132.6L573.9 972.5c-36.6 36.7 -96 36.7 -132.6 0L27.5 558.7A93.8 -93.8 0 0 0 0 492.4zM218.8 125C167 125 125 167 125 218.8s42 93.7 93.8 93.7 93.7 -42 93.7 -93.7S270.5 125 218.8 125z"/></svg>
